X: 1
T: The 78th's Walk Round (The Liverpool Hornpipe)
R: Hornpipe
M: 2/4
L: 1/16
K: Dmaj
|: fe | d>cd>B G>Bd<f | e>dc>B A2g2 | f<af>d e>fe>d | c>de>c A>gf<e |
d>cd>B G>Bd<f | e>dc>B A2g2 | f<af>d e>fe>c | d2d2 d2 :|
|:g2 | a>ga>f d>ef<g | a>ga>f d2ef | g>ag>f e>fe>d | c>de>c A>gf<e |
d>cd>B G>Bd<f | e>dc>B A2g2 | f<af>d e>fe>c | d2d2 d2 :|
